X:1
T:[ID 1-61]
T:[ID 1-61]
T:Bezeichnung standardisiert: Menuett Men:
T:Urheber unbekannt Datum in der hier transkribierten schriftlichen Quelle: vermutlich vor 1767
C:Urheber unbekannt
C:Datum in der hier transkribierten schriftlichen Quelle: vermutlich vor 1767
L:1/8
M:3/4
K:G
V:1 treble 
V:1
 d3 cBA | G2 GABc | d2 d2 e2 | d4 d2 | e2 c2 G2 | C4 c2 | d2 B2 G2 | D4 B2 | c2 AGFE | D2 cBcA | %10
 BdBGAF | G6 :: B4 e2 | ^d4 e2 | fefgaf | g2 fg e2 | A4 ce | Agfe f2 | A4 ce | Agfe fg | a2 gfef | %21
 d6 | gd G,4 | dB G,4 | gd G,4 | dB G,4 | BdBGAF | G6 :| %28

